X:41
T:Coffee
C:Gary Haggerty
M:6/8
R:jig
K:Ador
EAA GA/A/A | cBA eA/A/A | EAA GA/A/A | cBA (A/B/A)A |
EAA GA/A/A | cBA eA/A/A | cBA (A/B/A)A | GED A2G :|
|: A,2C EGA | (c/B/A)A GED | A,2C EGA | (c/B/A)A (A/B/A)A |
A,2C EGA | dc/c/c cAG | dc/c/c cAG | EDE A3 :|

